X:39
T:Castle Kelly
R:reel
M:4/4
L:1/8
K:Amin
|:A2 cA ABcA|GcEG G2 EG|A2 cA ABcd|ecdB cA A2:|
|agec dfed|cAGE G2 eg|agec d2cd|eaag a2ba|
gedc dfed|cAGE|G2 EG|A2 cA ABcd|ecdB cA A2|

